X:5
T:Piano Postulate no. 5: ∀A(0 ∈ A ∧ ∀a(a ∈ A ⇒ S(a) ∈ A) ⇒ S ⊇ ℕ)
C:David Mandelberg
M:2/4
L:1/8
Q:"Andante"
V:T clef=treble
V:B clef=bass
%%score {T B}
K:C
[V:T] ga ab | GA AB | z2   EF |\
[V:B] Z     | Z     | C,D, z2 |\
[V:T] Z |\
[V:B] Z |\
[V:T] [CDEFGAB] z3 & [cdefgab] z3 & [c'd'e'f'g'a'b'] z3 |]
[V:B] [C,,,D,,,E,,,F,,,G,,,A,,,B,,,] z3 & [C,,D,,E,,F,,G,,A,,B,,] z3 & [C,D,E,F,G,A,B,] z3 |]
